icons/word-dark.svg

<svg width="256" height="256" viewBox="0 0 256 256" fill="none" xmlns="http://www.w3.org/2000/svg">
<path d="M196 0H60C26.8629 0 0 26.8629 0 60V196C0 229.137 26.8629 256 60 256H196C229.137 256 256 229.137 256 196V60C256 26.8629 229.137 0 196 0Z" fill="#282828"/>
<path d="M90.1007 50.0001H211.388C213.387 49.9878 215.309 50.7669 216.735 52.1673C218.162 53.5676 218.976 55.4755 219 57.4742V198.327C218.988 199.314 218.782 200.29 218.392 201.198C218.003 202.105 217.439 202.928 216.732 203.617C216.026 204.307 215.19 204.851 214.273 205.218C213.356 205.584 212.375 205.767 211.388 205.755H90.1007C88.0901 205.75 86.1578 204.974 84.703 203.586C83.9992 202.903 83.4403 202.086 83.0598 201.182C82.6793 200.278 82.485 199.307 82.4886 198.327V57.4742C82.4841 56.4866 82.6777 55.5082 83.0581 54.5969C83.4385 53.6856 83.9978 52.8598 84.703 52.1685C86.182 50.8186 88.0989 50.0485 90.1007 50.0001Z" fill="#41A5EE"/>
<path d="M219 166.862H82.4885V198.327C82.5006 199.314 82.707 200.29 83.0961 201.198C83.4852 202.106 84.0492 202.928 84.7561 203.618C85.463 204.307 86.2988 204.851 87.2159 205.218C88.1329 205.584 89.1131 205.767 90.1007 205.755H211.388C212.375 205.767 213.356 205.584 214.273 205.218C215.19 204.851 216.026 204.307 216.732 203.618C217.439 202.928 218.003 202.106 218.392 201.198C218.781 200.29 218.988 199.314 219 198.327V166.862Z" fill="#103F91"/>
<path d="M82.4885 127.924H219V166.862H82.4885V127.924Z" fill="#185ABD"/>
<path d="M82.4885 88.9844H219V127.923H82.4885V88.9844Z" fill="#2B7CD3"/>
<g opacity="0.67">
<path opacity="0.05" d="M130.884 81.8344H91.3003C90.9307 81.8283 90.5635 81.895 90.2197 82.0308C89.876 82.1667 89.5623 82.3689 89.2967 82.6259C89.0311 82.883 88.8188 83.1898 88.6718 83.529C88.5247 83.8681 88.446 84.2329 88.4399 84.6025V171.292C88.4751 172.03 88.7905 172.728 89.3219 173.242C89.8534 173.757 90.5609 174.049 91.3003 174.06H130.884C132.368 174.06 133.793 173.473 134.847 172.428C135.901 171.382 136.5 169.962 136.512 168.477V87.6013C136.518 86.8626 136.377 86.1301 136.095 85.4469C135.814 84.7638 135.399 84.1438 134.874 83.6236C134.35 83.1034 133.727 82.6934 133.041 82.4178C132.356 82.1422 131.622 82.0066 130.884 82.0189V81.8344Z" fill="black"/>
<path opacity="0.1" d="M120.319 96.4596H82.4885V185.778H120.319C122.273 185.816 124.163 185.081 125.58 183.734C126.996 182.387 127.824 180.535 127.885 178.581V103.426C127.777 101.509 126.927 99.709 125.515 98.4083C124.102 97.1076 122.238 96.4086 120.319 96.4596Z" fill="black"/>
<path opacity="0.2" d="M120.319 91.3383H82.4885V180.611H120.319C122.273 180.648 124.163 179.914 125.58 178.566C126.996 177.219 127.824 175.368 127.885 173.414V98.4894C127.824 96.5395 126.995 94.6928 125.577 93.3529C124.159 92.0129 122.269 91.2886 120.319 91.3383Z" fill="black"/>
<path opacity="0.1" d="M128.623 83.5873H89.0398C88.6724 83.5812 88.3075 83.6483 87.9663 83.7846C87.6251 83.921 87.3145 84.1239 87.0526 84.3816C86.7906 84.6393 86.5826 84.9465 86.4406 85.2854C86.2987 85.6242 86.2255 85.988 86.2256 86.3555V172.998C86.2255 173.366 86.2987 173.73 86.4406 174.069C86.5826 174.407 86.7906 174.715 87.0526 174.972C87.3145 175.23 87.6251 175.433 87.9663 175.569C88.3075 175.706 88.6724 175.773 89.0398 175.767H128.623C130.108 175.779 131.538 175.204 132.6 174.167C133.663 173.13 134.273 171.715 134.298 170.23V89.1236C134.273 87.6389 133.663 86.2239 132.6 85.1869C131.538 84.1499 130.108 83.5749 128.623 83.5873Z" fill="black"/>
<path opacity="0.1" d="M128.485 85.8943H88.9475C88.5779 85.8882 88.2107 85.955 87.867 86.0908C87.5232 86.2266 87.2096 86.4288 86.9439 86.6859C86.6783 86.9429 86.4659 87.2498 86.3189 87.589C86.1719 87.9281 86.0932 88.2929 86.0872 88.6625V174.429C86.087 174.8 86.1615 175.168 86.3063 175.51C86.4511 175.852 86.6633 176.161 86.9302 176.42C87.1971 176.678 87.5133 176.88 87.8599 177.013C88.2064 177.147 88.5763 177.209 88.9475 177.197H128.485C129.225 177.215 129.962 177.086 130.653 176.817C131.343 176.547 131.973 176.143 132.505 175.628C133.038 175.113 133.462 174.496 133.754 173.815C134.046 173.134 134.199 172.402 134.205 171.661V91.4306C134.193 90.6915 134.036 89.9619 133.742 89.2836C133.448 88.6053 133.023 87.9915 132.492 87.4774C131.96 86.9633 131.333 86.5589 130.646 86.2873C129.958 86.0157 129.224 85.8821 128.485 85.8943Z" fill="black"/>
<path opacity="0.01" d="M122.118 79.3429H82.581V152.191H82.0273V163.587C82.0273 163.954 82.1004 164.318 82.2424 164.657C82.3844 164.996 82.5924 165.303 82.8543 165.561C83.1163 165.818 83.4269 166.021 83.7681 166.158C84.1093 166.294 84.4742 166.361 84.8415 166.355L116.49 160.68C119.627 160.68 128.069 158.051 128.069 154.959V84.8792C128.064 84.1342 127.909 83.3979 127.614 82.7137C127.319 82.0294 126.891 81.4111 126.353 80.8952C125.816 80.3792 125.181 79.9761 124.485 79.7095C123.789 79.4429 123.047 79.3182 122.303 79.3429H122.118Z" fill="black"/>
<path opacity="0.2" d="M120.319 93.7827H82.4885V183.055H120.319C122.269 183.105 124.159 182.381 125.577 181.041C126.995 179.701 127.824 177.854 127.885 175.904V100.934C127.824 98.9839 126.995 97.1372 125.577 95.7972C124.159 94.4572 122.269 93.733 120.319 93.7827Z" fill="black"/>
<path opacity="0.3" d="M120.319 85.9399H82.4885V173.598H120.319C121.327 173.636 122.332 173.467 123.272 173.102C124.213 172.736 125.068 172.182 125.786 171.473C126.503 170.764 127.068 169.915 127.445 168.979C127.822 168.043 128.003 167.04 127.977 166.032V93.0909C127.947 92.1174 127.725 91.1593 127.323 90.272C126.922 89.3847 126.348 88.5856 125.637 87.9209C124.925 87.2562 124.088 86.7389 123.176 86.3989C122.263 86.0589 121.292 85.9029 120.319 85.9399Z" fill="black"/>
<path opacity="0.3" d="M120.319 85.9399H82.4885V172.998H120.319C122.251 173.062 124.131 172.37 125.561 171.069C126.991 169.768 127.858 167.961 127.977 166.032V93.0909C127.947 92.1174 127.725 91.1593 127.323 90.272C126.922 89.3847 126.348 88.5856 125.637 87.9209C124.925 87.2562 124.088 86.7389 123.176 86.3989C122.263 86.0589 121.292 85.9029 120.319 85.9399Z" fill="black"/>
<path opacity="0.3" d="M120.319 87.601H82.4885V177.012H120.319C122.269 177.062 124.159 176.337 125.577 174.998C126.995 173.658 127.824 171.811 127.885 169.861V94.8904C127.873 93.9131 127.667 92.9479 127.279 92.0508C126.891 91.1536 126.329 90.3425 125.625 89.6643C124.921 88.9862 124.09 88.4546 123.179 88.1004C122.268 87.7462 121.296 87.5764 120.319 87.601Z" fill="black"/>
<path opacity="0.2" d="M120.319 89.3998H82.4885V178.719H120.319C122.273 178.756 124.163 178.021 125.58 176.674C126.996 175.327 127.824 173.475 127.885 171.521V96.8276C127.891 95.8386 127.699 94.8585 127.319 93.9452C126.94 93.032 126.38 92.2044 125.674 91.5116C124.969 90.8187 124.131 90.2748 123.211 89.912C122.291 89.5492 121.307 89.375 120.319 89.3998Z" fill="black"/>
<path opacity="0.1" d="M127.608 88.4301H88.0246C87.655 88.424 87.2879 88.4907 86.9441 88.6266C86.6003 88.7624 86.2867 88.9646 86.0211 89.2216C85.7555 89.4787 85.5431 89.7855 85.396 90.1247C85.249 90.4638 85.1703 90.8286 85.1643 91.1982V172.582C85.1703 172.951 85.249 173.316 85.396 173.655C85.5431 173.994 85.7555 174.301 86.0211 174.558C86.2867 174.815 86.6003 175.018 86.9441 175.153C87.2879 175.289 87.655 175.356 88.0246 175.35H127.608C128.345 175.356 129.076 175.216 129.758 174.938C130.441 174.66 131.062 174.25 131.585 173.731C132.108 173.212 132.524 172.595 132.807 171.914C133.09 171.234 133.236 170.504 133.236 169.767V94.0125C133.224 92.5277 132.626 91.1079 131.571 90.0623C130.517 89.0167 129.093 88.43 127.608 88.4301Z" fill="black"/>
<path opacity="0.2" d="M123.179 88.4311H83.6419C83.2916 88.3615 82.9311 88.3615 82.5808 88.4311V173.413C82.933 173.46 83.2897 173.46 83.6419 173.413H123.179C123.918 173.419 124.651 173.28 125.336 173.002C126.022 172.725 126.645 172.316 127.172 171.797C127.699 171.279 128.119 170.662 128.407 169.981C128.696 169.301 128.847 168.57 128.854 167.831V94.0135C128.847 93.2744 128.696 92.5436 128.407 91.8631C128.119 91.1825 127.699 90.5654 127.172 90.047C126.645 89.5286 126.022 89.1191 125.336 88.8418C124.651 88.5646 123.918 88.425 123.179 88.4311Z" fill="black"/>
<path opacity="0.3" d="M113.214 83.6338H84.4724C83.7295 83.6334 83.0156 83.9221 82.4818 84.4387C81.948 84.9554 81.636 85.6594 81.6121 86.4019V167.739C81.6181 168.109 81.6968 168.474 81.8438 168.813C81.9908 169.152 82.2032 169.459 82.4688 169.716C82.7345 169.973 83.0481 170.175 83.3919 170.311C83.7356 170.447 84.1028 170.514 84.4724 170.507H124.01C125.494 170.52 126.924 169.945 127.987 168.908C129.05 167.871 129.66 166.456 129.684 164.971V91.6614C129.684 88.3396 122.026 86.5865 121.149 85.5715C118.694 84.3098 115.975 83.6459 113.214 83.6338Z" fill="black"/>
<path opacity="0.1" d="M125.67 92.4463H86.1333C85.3904 92.4459 84.6765 92.7345 84.1427 93.2512C83.6088 93.7678 83.2969 94.4719 83.2729 95.2144V176.598C83.2969 177.34 83.6088 178.044 84.1427 178.561C84.6765 179.078 85.3904 179.366 86.1333 179.366H125.67C126.41 179.372 127.143 179.233 127.828 178.955C128.513 178.678 129.137 178.269 129.664 177.75C130.191 177.232 130.61 176.615 130.899 175.934C131.187 175.254 131.339 174.523 131.345 173.784V98.0287C131.333 96.5439 130.734 95.1241 129.68 94.0785C128.626 93.0329 127.201 92.4462 125.717 92.4463H125.67Z" fill="black"/>
<path opacity="0.1" d="M122.118 80.865H82.581V153.621H82.0273V165.017C82.0273 165.384 82.1004 165.748 82.2424 166.087C82.3844 166.426 82.5924 166.733 82.8543 166.991C83.1163 167.248 83.4269 167.451 83.7681 167.587C84.1093 167.724 84.4742 167.791 84.8415 167.785L116.49 162.156C119.627 162.156 128.069 159.48 128.069 156.389V86.3552C128.021 84.8581 127.383 83.4408 126.294 82.4124C125.205 81.3839 123.754 80.8277 122.256 80.865H122.118Z" fill="black"/>
<path opacity="0.15" d="M122.118 82.4338H82.581V155.005H82.0273V166.401C82.0273 166.768 82.1004 167.132 82.2424 167.471C82.3844 167.81 82.5924 168.117 82.8543 168.375C83.1163 168.632 83.4269 168.835 83.7681 168.972C84.1093 169.108 84.4742 169.175 84.8415 169.169L116.49 163.54C119.627 163.54 128.069 160.865 128.069 157.774V87.8317C128.04 87.0883 127.863 86.3581 127.55 85.6834C127.236 85.0087 126.792 84.4028 126.243 83.9008C125.694 83.3989 125.05 83.0108 124.35 82.759C123.65 82.5071 122.907 82.3966 122.164 82.4338H122.118Z" fill="black"/>
</g>
<path d="M44.5661 83.4025H120.319C122.305 83.3902 124.216 84.1644 125.633 85.5561C127.051 86.9478 127.86 88.8439 127.885 90.8304V164.971C127.879 165.958 127.678 166.935 127.295 167.845C126.911 168.755 126.352 169.581 125.65 170.275C124.947 170.969 124.115 171.517 123.2 171.89C122.285 172.262 121.306 172.451 120.319 172.445H44.5661C42.5679 172.402 40.6581 171.612 39.2145 170.23C38.5106 169.547 37.9517 168.73 37.5712 167.826C37.1907 166.922 36.9965 165.951 37 164.971V90.7842C37.0364 88.8059 37.8511 86.9215 39.2673 85.5397C40.6836 84.1579 42.5875 83.39 44.5661 83.4025Z" fill="#185ABD"/>
<path d="M105.786 155.743H95.5907L83.6419 117.358L71.1394 155.743H60.8976L49.5024 100.104H59.7443L67.6794 139.042L79.6281 101.211H88.163L99.5582 139.042L107.493 100.104H117.182L105.786 155.743Z" fill="white"/>
</svg>

<svg xmlns="http://www.w3.org/2000/svg" width="256" height="256" fill="none"><path fill="#282828" d="M196 0H60C26.863 0 0 26.863 0 60v136c0 33.137 26.863 60 60 60h136c33.137 0 60-26.863 60-60V60c0-33.137-26.863-60-60-60"/><path fill="#41A5EE" d="M90.1 50h121.288A7.564 7.564 0 0 1 219 57.474v140.853a7.5 7.5 0 0 1-2.268 5.29 7.5 7.5 0 0 1-5.344 2.138H90.101a7.85 7.85 0 0 1-5.398-2.169 7.3 7.3 0 0 1-2.214-5.259V57.474a7.38 7.38 0 0 1 2.214-5.305A8.3 8.3 0 0 1 90.101 50"/><path fill="#103F91" d="M219 166.862H82.489v31.465a7.525 7.525 0 0 0 4.727 6.891 7.5 7.5 0 0 0 2.885.537h121.287a7.524 7.524 0 0 0 7.612-7.428z"/><path fill="#185ABD" d="M82.489 127.924H219v38.938H82.489z"/><path fill="#2B7CD3" d="M82.489 88.984H219v38.939H82.489z"/><g fill="#000" opacity=".67"><path d="M130.884 81.834H91.3a2.815 2.815 0 0 0-2.86 2.769v86.689a2.907 2.907 0 0 0 2.86 2.768h39.584a5.63 5.63 0 0 0 5.628-5.583V87.601a5.53 5.53 0 0 0-1.638-3.977 5.52 5.52 0 0 0-3.99-1.605z" opacity=".05"/><path d="M120.319 96.46h-37.83v89.318h37.83a7.427 7.427 0 0 0 7.566-7.197v-75.155a7.383 7.383 0 0 0-7.566-6.966" opacity=".1"/><path d="M120.319 91.338h-37.83v89.273h37.83a7.43 7.43 0 0 0 7.566-7.197V98.489a7.384 7.384 0 0 0-7.566-7.15" opacity=".2"/><path d="M128.623 83.587H89.04a2.77 2.77 0 0 0-2.814 2.769v86.642a2.77 2.77 0 0 0 1.74 2.571 2.8 2.8 0 0 0 1.074.198h39.583a5.63 5.63 0 0 0 5.675-5.537V89.124a5.63 5.63 0 0 0-5.675-5.537" opacity=".1"/><path d="M128.485 85.894H88.947a2.814 2.814 0 0 0-2.86 2.768v85.767a2.77 2.77 0 0 0 2.86 2.768h39.538a5.59 5.59 0 0 0 5.269-3.382 5.6 5.6 0 0 0 .451-2.154v-80.23a5.63 5.63 0 0 0-5.72-5.537" opacity=".1"/><path d="M122.118 79.343H82.581v72.848h-.554v11.396a2.77 2.77 0 0 0 2.814 2.768l31.649-5.675c3.137 0 11.579-2.629 11.579-5.721v-70.08a5.58 5.58 0 0 0-3.584-5.17 5.6 5.6 0 0 0-2.182-.366z" opacity=".01"/><path d="M120.319 93.783h-37.83v89.272h37.83a7.38 7.38 0 0 0 7.566-7.151v-74.97a7.384 7.384 0 0 0-7.566-7.151" opacity=".2"/><path d="M120.319 85.94h-37.83v87.658h37.83a7.4 7.4 0 0 0 5.467-2.125 7.4 7.4 0 0 0 2.191-5.441V93.091a7.38 7.38 0 0 0-7.658-7.151" opacity=".3"/><path d="M120.319 85.94h-37.83v87.058h37.83a7.43 7.43 0 0 0 7.658-6.966V93.091a7.38 7.38 0 0 0-7.658-7.151" opacity=".3"/><path d="M120.319 87.601h-37.83v89.411h37.83a7.384 7.384 0 0 0 7.566-7.151v-74.97a7.38 7.38 0 0 0-7.566-7.29" opacity=".3"/><path d="M120.319 89.4h-37.83v89.319h37.83a7.43 7.43 0 0 0 7.566-7.198V96.828a7.386 7.386 0 0 0-7.566-7.428" opacity=".2"/><path d="M127.608 88.43H88.025a2.813 2.813 0 0 0-2.86 2.768v81.384a2.813 2.813 0 0 0 2.86 2.768h39.583a5.58 5.58 0 0 0 3.977-1.619 5.57 5.57 0 0 0 1.651-3.964V94.013a5.625 5.625 0 0 0-5.628-5.583" opacity=".1"/><path d="M123.179 88.431H83.642c-.35-.07-.71-.07-1.061 0v84.982a4 4 0 0 0 1.06 0h39.538a5.6 5.6 0 0 0 2.157-.411 5.6 5.6 0 0 0 3.071-3.021c.289-.68.44-1.411.447-2.15V94.014a5.64 5.64 0 0 0-3.518-5.172 5.6 5.6 0 0 0-2.157-.41" opacity=".2"/><path d="M113.214 83.634H84.472a2.86 2.86 0 0 0-2.86 2.768v81.337a2.814 2.814 0 0 0 2.86 2.768h39.538a5.626 5.626 0 0 0 5.674-5.536v-73.31c0-3.321-7.658-5.074-8.535-6.09a17.5 17.5 0 0 0-7.935-1.937" opacity=".3"/><path d="M125.67 92.446H86.133a2.86 2.86 0 0 0-2.86 2.768v81.384a2.86 2.86 0 0 0 2.86 2.768h39.537a5.62 5.62 0 0 0 3.994-1.616 5.63 5.63 0 0 0 1.681-3.966V98.029a5.63 5.63 0 0 0-5.628-5.583z" opacity=".1"/><path d="M122.118 80.865H82.581v72.756h-.554v11.396a2.77 2.77 0 0 0 2.814 2.768l31.649-5.629c3.137 0 11.579-2.676 11.579-5.767V86.355a5.673 5.673 0 0 0-5.813-5.49z" opacity=".1"/><path d="M122.118 82.434H82.581v72.571h-.554v11.396a2.77 2.77 0 0 0 2.814 2.768l31.649-5.629c3.137 0 11.579-2.675 11.579-5.766V87.832a5.627 5.627 0 0 0-5.905-5.398z" opacity=".15"/></g><path fill="#185ABD" d="M44.566 83.403h75.753a7.52 7.52 0 0 1 7.566 7.427v74.141a7.53 7.53 0 0 1-2.235 5.304 7.53 7.53 0 0 1-5.331 2.17H44.566a8 8 0 0 1-5.352-2.215A7.3 7.3 0 0 1 37 164.971V90.784a7.52 7.52 0 0 1 7.566-7.382"/><path fill="#fff" d="M105.786 155.743H95.591l-11.95-38.385-12.502 38.385H60.898l-11.396-55.639h10.242l7.935 38.938 11.95-37.831h8.534l11.395 37.831 7.935-38.938h9.689z"/></svg>
